!!!COM: Fux, Johann Joseph
!!!OMD: Gradus ad Parnassum Exercise
!!!YEC: CC0 1.0 Universal (Public Domain). Mark Gotham and FourScoreAndMore.org waive all rights to this document.
**kern	**kern	**kern
*part3	*part2	*part1
*staff3	*staff2	*staff1
*I"3	*I"2	*I"1
*I'Pno	*I'Pno	*I'Pno
!!LO:PB:g=z
*clefGv2	*clefG2	*clefG2
*k[]	*k[]	*k[]
!!LO:TX:omd:t=
*M4/4	*M4/4	*M4/4
=44	=44	=44
!	!	!LO:TX:a:t=Fig. 108; Species&colon; 1; Modal final&colon; e; Cantus firmus&colon; 2
1E	1e	1g
=45	=45	=45
1A	1c	1e
=46	=46	=46
1D	1d	1f
=47	=47	=47
1F	1c	1a
=48	=48	=48
1F	1A	1cc
=49	=49	=49
1F	1a	1cc
=50	=50	=50
1c	1g	1ee
=51	=51	=51
1c	1e	1cc
=52	=52	=52
1d	1f	1a
=53	=53	=53
1e	1e	1g#X
==	==	==
*-	*-	*-
!!!software: music21 v.9.7.1
!!!software: music21 v.9.7.1
!!!software: MuseScore 3.4.2
!!!RDF**kern: > = above
!!!RDF**kern: < = below
